static/img/kroki/8a3b0f3ffd3742be1bd88683399ec299.svg

<?xml version="1.0" encoding="us-ascii" standalone="no"?><svg xmlns="http://www.w3.org/2000/svg" xmlns:xlink="http://www.w3.org/1999/xlink" contentStyleType="text/css" height="252px" preserveAspectRatio="none" style="width:1015px;height:252px;" version="1.1" viewBox="0 0 1015 252" width="1015px" zoomAndPan="magnify"><defs/><g><!--class aws_autoscaling_group--><g id="elem_aws_autoscaling_group"><rect codeLine="22" fill="#3D176E" height="39.7891" id="aws_autoscaling_group" rx="2.5" ry="2.5" style="stroke:#000D19;stroke-width:0.5;" width="236" x="417.5" y="106.79"/><ellipse cx="432.5" cy="126.6845" fill="#ADD1B2" rx="11" ry="11" style="stroke:#181818;stroke-width:1.0;"/><path d="M435.4688,132.3252 Q434.8906,132.622 434.25,132.7627 Q433.6094,132.9189 432.9063,132.9189 Q430.4063,132.9189 429.0781,131.2783 Q427.7656,129.622 427.7656,126.497 Q427.7656,123.372 429.0781,121.7158 Q430.4063,120.0595 432.9063,120.0595 Q433.6094,120.0595 434.25,120.2158 Q434.9063,120.372 435.4688,120.6689 L435.4688,123.3877 Q434.8438,122.8095 434.25,122.5439 Q433.6563,122.2627 433.0313,122.2627 Q431.6875,122.2627 431,123.3408 Q430.3125,124.4033 430.3125,126.497 Q430.3125,128.5908 431,129.6689 Q431.6875,130.7314 433.0313,130.7314 Q433.6563,130.7314 434.25,130.4658 Q434.8438,130.1845 435.4688,129.6064 L435.4688,132.3252 Z " fill="#000000"/><text fill="#D9B8FF" font-family="Helvetica" font-size="17" lengthAdjust="spacing" textLength="194" x="451.5" y="132.5698">aws_autoscaling_group</text></g><!--class aws_beanstalk_environment--><g id="elem_aws_beanstalk_environment"><rect codeLine="24" fill="#3D176E" height="39.7891" id="aws_beanstalk_environment" rx="2.5" ry="2.5" style="stroke:#000D19;stroke-width:0.5;" width="283" x="7" y="7"/><ellipse cx="22" cy="26.8945" fill="#ADD1B2" rx="11" ry="11" style="stroke:#181818;stroke-width:1.0;"/><path d="M24.9688,32.5352 Q24.3906,32.832 23.75,32.9727 Q23.1094,33.1289 22.4063,33.1289 Q19.9063,33.1289 18.5781,31.4883 Q17.2656,29.832 17.2656,26.707 Q17.2656,23.582 18.5781,21.9258 Q19.9063,20.2695 22.4063,20.2695 Q23.1094,20.2695 23.75,20.4258 Q24.4063,20.582 24.9688,20.8789 L24.9688,23.5977 Q24.3438,23.0195 23.75,22.7539 Q23.1563,22.4727 22.5313,22.4727 Q21.1875,22.4727 20.5,23.5508 Q19.8125,24.6133 19.8125,26.707 Q19.8125,28.8008 20.5,29.8789 Q21.1875,30.9414 22.5313,30.9414 Q23.1563,30.9414 23.75,30.6758 Q24.3438,30.3945 24.9688,29.8164 L24.9688,32.5352 Z " fill="#000000"/><text fill="#D9B8FF" font-family="Helvetica" font-size="17" lengthAdjust="spacing" textLength="241" x="41" y="32.7798">aws_beanstalk_environment</text></g><!--class aws_ec2_instance--><g id="elem_aws_ec2_instance"><rect codeLine="26" fill="#3D176E" height="39.7891" id="aws_ec2_instance" rx="2.5" ry="2.5" style="stroke:#000D19;stroke-width:0.5;" width="192" x="439.5" y="206.58"/><ellipse cx="454.5" cy="226.4745" fill="#ADD1B2" rx="11" ry="11" style="stroke:#181818;stroke-width:1.0;"/><path d="M457.4688,232.1152 Q456.8906,232.412 456.25,232.5527 Q455.6094,232.7089 454.9063,232.7089 Q452.4063,232.7089 451.0781,231.0683 Q449.7656,229.412 449.7656,226.287 Q449.7656,223.162 451.0781,221.5058 Q452.4063,219.8495 454.9063,219.8495 Q455.6094,219.8495 456.25,220.0058 Q456.9063,220.162 457.4688,220.4589 L457.4688,223.1777 Q456.8438,222.5995 456.25,222.3339 Q455.6563,222.0527 455.0313,222.0527 Q453.6875,222.0527 453,223.1308 Q452.3125,224.1933 452.3125,226.287 Q452.3125,228.3808 453,229.4589 Q453.6875,230.5214 455.0313,230.5214 Q455.6563,230.5214 456.25,230.2558 Q456.8438,229.9745 457.4688,229.3964 L457.4688,232.1152 Z " fill="#000000"/><text fill="#D9B8FF" font-family="Helvetica" font-size="17" lengthAdjust="spacing" textLength="150" x="473.5" y="232.3598">aws_ec2_instance</text></g><!--class aws_ecs_capacity_provider--><g id="elem_aws_ecs_capacity_provider"><rect codeLine="28" fill="#3D176E" height="39.7891" id="aws_ecs_capacity_provider" rx="2.5" ry="2.5" style="stroke:#000D19;stroke-width:0.5;" width="265" x="325" y="7"/><ellipse cx="340" cy="26.8945" fill="#ADD1B2" rx="11" ry="11" style="stroke:#181818;stroke-width:1.0;"/><path d="M342.9688,32.5352 Q342.3906,32.832 341.75,32.9727 Q341.1094,33.1289 340.4063,33.1289 Q337.9063,33.1289 336.5781,31.4883 Q335.2656,29.832 335.2656,26.707 Q335.2656,23.582 336.5781,21.9258 Q337.9063,20.2695 340.4063,20.2695 Q341.1094,20.2695 341.75,20.4258 Q342.4063,20.582 342.9688,20.8789 L342.9688,23.5977 Q342.3438,23.0195 341.75,22.7539 Q341.1563,22.4727 340.5313,22.4727 Q339.1875,22.4727 338.5,23.5508 Q337.8125,24.6133 337.8125,26.707 Q337.8125,28.8008 338.5,29.8789 Q339.1875,30.9414 340.5313,30.9414 Q341.1563,30.9414 341.75,30.6758 Q342.3438,30.3945 342.9688,29.8164 L342.9688,32.5352 Z " fill="#000000"/><text fill="#D9B8FF" font-family="Helvetica" font-size="17" lengthAdjust="spacing" textLength="223" x="359" y="32.7798">aws_ecs_capacity_provider</text></g><!--class aws_eks_nodegroup--><g id="elem_aws_eks_nodegroup"><rect codeLine="30" fill="#3D176E" height="39.7891" id="aws_eks_nodegroup" rx="2.5" ry="2.5" style="stroke:#000D19;stroke-width:0.5;" width="210" x="625.5" y="7"/><ellipse cx="640.5" cy="26.8945" fill="#ADD1B2" rx="11" ry="11" style="stroke:#181818;stroke-width:1.0;"/><path d="M643.4688,32.5352 Q642.8906,32.832 642.25,32.9727 Q641.6094,33.1289 640.9063,33.1289 Q638.4063,33.1289 637.0781,31.4883 Q635.7656,29.832 635.7656,26.707 Q635.7656,23.582 637.0781,21.9258 Q638.4063,20.2695 640.9063,20.2695 Q641.6094,20.2695 642.25,20.4258 Q642.9063,20.582 643.4688,20.8789 L643.4688,23.5977 Q642.8438,23.0195 642.25,22.7539 Q641.6563,22.4727 641.0313,22.4727 Q639.6875,22.4727 639,23.5508 Q638.3125,24.6133 638.3125,26.707 Q638.3125,28.8008 639,29.8789 Q639.6875,30.9414 641.0313,30.9414 Q641.6563,30.9414 642.25,30.6758 Q642.8438,30.3945 643.4688,29.8164 L643.4688,32.5352 Z " fill="#000000"/><text fill="#D9B8FF" font-family="Helvetica" font-size="17" lengthAdjust="spacing" textLength="168" x="659.5" y="32.7798">aws_eks_nodegroup</text></g><!--class aws_region--><g id="elem_aws_region"><rect codeLine="32" fill="#3D176E" height="39.7891" id="aws_region" rx="2.5" ry="2.5" style="stroke:#000D19;stroke-width:0.5;" width="137" x="871" y="7"/><ellipse cx="886" cy="26.8945" fill="#ADD1B2" rx="11" ry="11" style="stroke:#181818;stroke-width:1.0;"/><path d="M888.9688,32.5352 Q888.3906,32.832 887.75,32.9727 Q887.1094,33.1289 886.4063,33.1289 Q883.9063,33.1289 882.5781,31.4883 Q881.2656,29.832 881.2656,26.707 Q881.2656,23.582 882.5781,21.9258 Q883.9063,20.2695 886.4063,20.2695 Q887.1094,20.2695 887.75,20.4258 Q888.4063,20.582 888.9688,20.8789 L888.9688,23.5977 Q888.3438,23.0195 887.75,22.7539 Q887.1563,22.4727 886.5313,22.4727 Q885.1875,22.4727 884.5,23.5508 Q883.8125,24.6133 883.8125,26.707 Q883.8125,28.8008 884.5,29.8789 Q885.1875,30.9414 886.5313,30.9414 Q887.1563,30.9414 887.75,30.6758 Q888.3438,30.3945 888.9688,29.8164 L888.9688,32.5352 Z " fill="#000000"/><text fill="#D9B8FF" font-family="Helvetica" font-size="17" lengthAdjust="spacing" textLength="95" x="905" y="32.7798">aws_region</text></g><!--link aws_autoscaling_group to aws_ec2_instance--><g id="link_aws_autoscaling_group_aws_ec2_instance"><path codeLine="34" d="M535.5,147.01 C535.5,162.28 535.5,183.71 535.5,200.32 " fill="none" id="aws_autoscaling_group-to-aws_ec2_instance" style="stroke:#1A83AF;stroke-width:2.0;"/><polygon fill="#1A83AF" points="535.5,205.2,539.5,196.2,535.5,200.2,531.5,196.2,535.5,205.2" style="stroke:#1A83AF;stroke-width:2.0;"/></g><!--link aws_beanstalk_environment to aws_autoscaling_group--><g id="link_aws_beanstalk_environment_aws_autoscaling_group"><path codeLine="35" d="M224.96,47.22 C290.84,63.87 385.72,87.84 453.24,104.9 " fill="none" id="aws_beanstalk_environment-to-aws_autoscaling_group" style="stroke:#1A83AF;stroke-width:2.0;"/><polygon fill="#1A83AF" points="457.87,106.32,450.1299,100.2297,453.0235,105.0905,448.1627,107.9841,457.87,106.32" style="stroke:#1A83AF;stroke-width:2.0;"/></g><!--link aws_beanstalk_environment to aws_ec2_instance--><g id="link_aws_beanstalk_environment_aws_ec2_instance"><path codeLine="36" d="M186.31,47.2 C258.71,84.16 416.46,164.7 492.64,203.59 " fill="none" id="aws_beanstalk_environment-to-aws_ec2_instance" style="stroke:#1A83AF;stroke-width:2.0;"/><polygon fill="#1A83AF" points="496.53,206.09,490.3274,198.4396,492.0751,203.8197,486.695,205.5674,496.53,206.09" style="stroke:#1A83AF;stroke-width:2.0;"/></g><!--link aws_ecs_capacity_provider to aws_autoscaling_group--><g id="link_aws_ecs_capacity_provider_aws_autoscaling_group"><path codeLine="37" d="M472.91,47.22 C485.41,62.89 503.09,85.05 516.47,101.83 " fill="none" id="aws_ecs_capacity_provider-to-aws_autoscaling_group" style="stroke:#1A83AF;stroke-width:2.0;"/><polygon fill="#1A83AF" points="520.12,105.41,517.6297,95.8812,517,101.5029,511.3783,100.8731,520.12,105.41" style="stroke:#1A83AF;stroke-width:2.0;"/></g><!--link aws_eks_nodegroup to aws_autoscaling_group--><g id="link_aws_eks_nodegroup_aws_autoscaling_group"><path codeLine="38" d="M691.97,47.22 C659.52,63.49 613.11,86.76 579.27,103.74 " fill="none" id="aws_eks_nodegroup-to-aws_autoscaling_group" style="stroke:#1A83AF;stroke-width:2.0;"/><polygon fill="#1A83AF" points="574.95,106.41,584.7881,105.9502,579.4193,104.1682,581.2013,98.7994,574.95,106.41" style="stroke:#1A83AF;stroke-width:2.0;"/></g><!--link aws_region to aws_autoscaling_group--><g id="link_aws_region_aws_autoscaling_group"><path codeLine="39" d="M870.51,44.6 C801.54,61.29 695.33,87 621.04,104.98 " fill="none" id="aws_region-to-aws_autoscaling_group" style="stroke:#1A83AF;stroke-width:2.0;"/><polygon fill="#1A83AF" points="616.3,106.37,625.9919,108.1215,621.1574,105.1842,624.0946,100.3497,616.3,106.37" style="stroke:#1A83AF;stroke-width:2.0;"/></g><!--link aws_region to aws_ec2_instance--><g id="link_aws_region_aws_ec2_instance"><path codeLine="40" d="M900.03,47.2 C824.45,84.16 659.77,164.7 580.25,203.59 " fill="none" id="aws_region-to-aws_ec2_instance" style="stroke:#1A83AF;stroke-width:2.0;"/><polygon fill="#1A83AF" points="576.13,206.09,585.9732,205.7559,580.6275,203.9055,582.478,198.5598,576.13,206.09" style="stroke:#1A83AF;stroke-width:2.0;"/></g><!--SRC=[fPD1Qm8n48Nl_eg0Py5LMlLIs0hINgJKtafPPfDP3RkRB9EesDB_tbsr9IPhjVGwyysyzuPa9GKoB2kxOoMMAPBfc5og2WXA5XFfxLGNcbWtoo0RZlpcJ2jx4PX3YUm1YmrQoS4dNbQIvmgDOGEdTGyyNv9UAt5ORmcKgLkeh4DD2p0cjfPakhRec16JT9nbFkalxGv5DBh50DCaa8v8lzyNqSH7Bahzclk7MCXtP95xjBcs6DWC9FRKhouRmZ4P1Ftkd_Nu1498jMGtJktvu8aKqabziGAXjmsTGM5S6MEHKDjTXTCW5Kx68Xkrme_dODvSZi7M9B2ssd0eQjMa8IlsqVbq-YdM3yP2aIUeDfAqAkkdup781ubiACKnQ9c4GmLSsbrIaTxK_uHy9ZU9qWBRv0cNKgjziTrjxxKRnUDXF7lhtGLcEkSJ17F1whyC1wBjkQyKFJt8bKF7I_sJTeDy0G00]--></g></svg>

<svg xmlns="http://www.w3.org/2000/svg" width="1015" height="252" preserveAspectRatio="none" style="width:1015px;height:252px"><rect width="236" height="39.789" x="417.5" y="106.79" fill="#3D176E" rx="2.5" ry="2.5" style="stroke:#000d19;stroke-width:.5"/><circle cx="432.5" cy="126.684" r="11" fill="#ADD1B2" style="stroke:#181818;stroke-width:1"/><path d="M435.469 132.325q-.578.297-1.219.438-.64.156-1.344.156-2.5 0-3.828-1.64-1.312-1.657-1.312-4.782t1.312-4.781q1.328-1.656 3.828-1.656.703 0 1.344.156.656.156 1.219.453v2.719q-.625-.579-1.219-.844-.594-.281-1.219-.281-1.344 0-2.031 1.078-.688 1.062-.688 3.156 0 2.094.688 3.172.688 1.062 2.031 1.062.625 0 1.219-.265.594-.281 1.219-.86v2.72Z"/><text x="451.5" y="132.57" fill="#D9B8FF" font-family="Helvetica" font-size="17" textLength="194">aws_autoscaling_group</text><rect width="283" height="39.789" x="7" y="7" fill="#3D176E" rx="2.5" ry="2.5" style="stroke:#000d19;stroke-width:.5"/><circle cx="22" cy="26.895" r="11" fill="#ADD1B2" style="stroke:#181818;stroke-width:1"/><path d="M24.969 32.535q-.578.297-1.219.438-.64.156-1.344.156-2.5 0-3.828-1.64-1.312-1.657-1.312-4.782t1.312-4.781q1.328-1.656 3.828-1.656.703 0 1.344.156.656.156 1.219.453v2.719q-.625-.578-1.219-.844-.594-.281-1.219-.281-1.343 0-2.031 1.078-.688 1.062-.688 3.156 0 2.094.688 3.172.688 1.062 2.031 1.062.625 0 1.219-.265.594-.281 1.219-.86v2.72Z"/><text x="41" y="32.78" fill="#D9B8FF" font-family="Helvetica" font-size="17" textLength="241">aws_beanstalk_environment</text><rect width="192" height="39.789" x="439.5" y="206.58" fill="#3D176E" rx="2.5" ry="2.5" style="stroke:#000d19;stroke-width:.5"/><circle cx="454.5" cy="226.475" r="11" fill="#ADD1B2" style="stroke:#181818;stroke-width:1"/><path d="M457.469 232.115q-.578.297-1.219.438-.64.156-1.344.156-2.5 0-3.828-1.64-1.312-1.657-1.312-4.782t1.312-4.781q1.328-1.656 3.828-1.656.703 0 1.344.156.656.156 1.219.453v2.719q-.625-.578-1.219-.844-.594-.281-1.219-.281-1.344 0-2.031 1.078-.688 1.062-.688 3.156 0 2.094.688 3.172.688 1.062 2.031 1.062.625 0 1.219-.265.594-.281 1.219-.86v2.72Z"/><text x="473.5" y="232.36" fill="#D9B8FF" font-family="Helvetica" font-size="17" textLength="150">aws_ec2_instance</text><rect width="265" height="39.789" x="325" y="7" fill="#3D176E" rx="2.5" ry="2.5" style="stroke:#000d19;stroke-width:.5"/><circle cx="340" cy="26.895" r="11" fill="#ADD1B2" style="stroke:#181818;stroke-width:1"/><path d="M342.969 32.535q-.578.297-1.219.438-.64.156-1.344.156-2.5 0-3.828-1.64-1.312-1.657-1.312-4.782t1.312-4.781q1.328-1.656 3.828-1.656.703 0 1.344.156.656.156 1.219.453v2.719q-.625-.578-1.219-.844-.594-.281-1.219-.281-1.344 0-2.031 1.078-.688 1.062-.688 3.156 0 2.094.688 3.172.688 1.062 2.031 1.062.625 0 1.219-.265.594-.281 1.219-.86v2.72Z"/><text x="359" y="32.78" fill="#D9B8FF" font-family="Helvetica" font-size="17" textLength="223">aws_ecs_capacity_provider</text><rect width="210" height="39.789" x="625.5" y="7" fill="#3D176E" rx="2.5" ry="2.5" style="stroke:#000d19;stroke-width:.5"/><circle cx="640.5" cy="26.895" r="11" fill="#ADD1B2" style="stroke:#181818;stroke-width:1"/><path d="M643.469 32.535q-.578.297-1.219.438-.64.156-1.344.156-2.5 0-3.828-1.64-1.312-1.657-1.312-4.782t1.312-4.781q1.328-1.656 3.828-1.656.703 0 1.344.156.656.156 1.219.453v2.719q-.625-.578-1.219-.844-.594-.281-1.219-.281-1.343 0-2.031 1.078-.688 1.062-.688 3.156 0 2.094.688 3.172.688 1.062 2.031 1.062.625 0 1.219-.265.594-.281 1.219-.86v2.72Z"/><text x="659.5" y="32.78" fill="#D9B8FF" font-family="Helvetica" font-size="17" textLength="168">aws_eks_nodegroup</text><rect width="137" height="39.789" x="871" y="7" fill="#3D176E" rx="2.5" ry="2.5" style="stroke:#000d19;stroke-width:.5"/><circle cx="886" cy="26.895" r="11" fill="#ADD1B2" style="stroke:#181818;stroke-width:1"/><path d="M888.969 32.535q-.578.297-1.219.438-.64.156-1.344.156-2.5 0-3.828-1.64-1.312-1.657-1.312-4.782t1.312-4.781q1.328-1.656 3.828-1.656.703 0 1.344.156.656.156 1.219.453v2.719q-.625-.578-1.219-.844-.594-.281-1.219-.281-1.343 0-2.031 1.078-.688 1.062-.688 3.156 0 2.094.688 3.172.688 1.062 2.031 1.062.625 0 1.219-.265.594-.281 1.219-.86v2.72Z"/><text x="905" y="32.78" fill="#D9B8FF" font-family="Helvetica" font-size="17" textLength="95">aws_region</text><path fill="none" d="M535.5 147.01v53.31" style="stroke:#1a83af;stroke-width:2"/><path fill="#1A83AF" d="m535.5 205.2 4-9-4 4-4-4 4 9z" style="stroke:#1a83af;stroke-width:2"/><path fill="none" d="M224.96 47.22c65.88 16.65 160.76 40.62 228.28 57.68" style="stroke:#1a83af;stroke-width:2"/><path fill="#1A83AF" d="m457.87 106.32-7.74-6.09 2.894 4.86-4.861 2.894 9.707-1.664z" style="stroke:#1a83af;stroke-width:2"/><path fill="none" d="M186.31 47.2c72.4 36.96 230.15 117.5 306.33 156.39" style="stroke:#1a83af;stroke-width:2"/><path fill="#1A83AF" d="m496.53 206.09-6.203-7.65 1.748 5.38-5.38 1.747 9.835.523z" style="stroke:#1a83af;stroke-width:2"/><path fill="none" d="M472.91 47.22c12.5 15.67 30.18 37.83 43.56 54.61" style="stroke:#1a83af;stroke-width:2"/><path fill="#1A83AF" d="m520.12 105.41-2.49-9.529-.63 5.622-5.622-.63 8.742 4.537z" style="stroke:#1a83af;stroke-width:2"/><path fill="none" d="M691.97 47.22c-32.45 16.27-78.86 39.54-112.7 56.52" style="stroke:#1a83af;stroke-width:2"/><path fill="#1A83AF" d="m574.95 106.41 9.838-.46-5.369-1.782 1.782-5.369-6.251 7.611z" style="stroke:#1a83af;stroke-width:2"/><path fill="none" d="M870.51 44.6C801.54 61.29 695.33 87 621.04 104.98" style="stroke:#1a83af;stroke-width:2"/><path fill="#1A83AF" d="m616.3 106.37 9.692 1.751-4.835-2.937 2.938-4.834-7.795 6.02z" style="stroke:#1a83af;stroke-width:2"/><path fill="none" d="M900.03 47.2c-75.58 36.96-240.26 117.5-319.78 156.39" style="stroke:#1a83af;stroke-width:2"/><path fill="#1A83AF" d="m576.13 206.09 9.843-.334-5.345-1.85 1.85-5.346-6.348 7.53z" style="stroke:#1a83af;stroke-width:2"/></svg>
